assets/luts/alexa_look_33.cube
TITLE "Alexa Look 33"
LUT_3D_SIZE 33
DOMAIN_MIN 0.0 0.0 0.0
DOMAIN_MAX 1.0 1.0 1.0
0.009999 0.010001 0.010001
0.029202 0.012875 0.012893
0.051661 0.016283 0.016364
0.078354 0.021454 0.021712
0.108678 0.028920 0.029581
0.141759 0.038974 0.040349
0.173069 0.049860 0.051660
0.202482 0.060360 0.062408
0.230234 0.070426 0.072532
0.256504 0.080058 0.082023
0.281447 0.089291 0.090900
0.305199 0.098173 0.099195
0.327880 0.106764 0.106948
0.349600 0.115129 0.114197
0.370454 0.123333 0.120982
0.390529 0.131441 0.127335
0.409901 0.139517 0.133286
0.428638 0.147624 0.138859
0.446801 0.155823 0.144071
0.470884 0.164245 0.149677
0.512369 0.172055 0.156151
0.564607 0.177541 0.161212
0.622430 0.179319 0.163052
0.682566 0.176296 0.160330
0.742964 0.167445 0.151863
0.802313 0.151430 0.136170
0.850425 0.147982 0.135582
0.891252 0.152776 0.143954
0.928675 0.157910 0.152011
0.962740 0.163419 0.159761
0.993538 0.169313 0.167218
1.000000 0.175584 0.174395
1.000000 0.182213 0.181305
0.019593 0.036387 0.019699
0.039511 0.039421 0.022647
0.060522 0.042920 0.026177
0.085708 0.047889 0.031601
0.115075 0.054494 0.039555
0.146917 0.062446 0.049431
0.177186 0.070818 0.059343
0.205878 0.079333 0.069005
0.233112 0.087831 0.078272
0.259001 0.096225 0.087074
0.283658 0.104476 0.095386
0.307191 0.112580 0.103208
0.329705 0.120555 0.110557
0.351295 0.128433 0.117453
0.372050 0.136256 0.123922
0.392048 0.144068 0.129985
0.411361 0.151919 0.135663
0.430052 0.159846 0.140973
0.448157 0.167603 0.145921
0.472652 0.175255 0.151258
0.514453 0.182280 0.157276
0.566820 0.187093 0.161773
0.624663 0.188376 0.162998
0.684756 0.185080 0.159620
0.745079 0.176239 0.150425
0.804333 0.160647 0.133838
0.850705 0.160290 0.137041
0.891474 0.164447 0.145325
0.928841 0.168956 0.153303
0.962855 0.173851 0.160982
0.993606 0.179146 0.168375
1.000000 0.184837 0.175493
1.000000 0.190908 0.182350
0.030745 0.064572 0.031232
0.050546 0.066849 0.034232
0.069748 0.069459 0.037816
0.093626 0.073254 0.043202
0.122104 0.078427 0.050407
0.152517 0.084712 0.058837
0.181712 0.091539 0.067507
0.209645 0.098701 0.076139
0.236325 0.106044 0.084553
0.261802 0.113469 0.092644
0.286146 0.120915 0.100355
0.309441 0.128358 0.107663
0.331770 0.135794 0.114561
0.353218 0.143237 0.121057
0.373862 0.150713 0.127160
0.393772 0.158235 0.132882
0.412999 0.165608 0.138225
0.431593 0.172772 0.143210
0.449605 0.179734 0.147867
0.474588 0.186639 0.152917
0.516747 0.192915 0.158445
0.569261 0.197074 0.162333
0.627129 0.197865 0.162888
0.687179 0.194291 0.158790
0.747419 0.185442 0.148787
0.806570 0.170232 0.131190
0.851035 0.172823 0.138696
0.891737 0.176404 0.146879
0.929040 0.180340 0.154767
0.962994 0.184666 0.162366
0.993690 0.189398 0.169685
1.000000 0.194537 0.176737
1.000000 0.200070 0.183533
0.046710 0.096790 0.048108
0.064295 0.098565 0.050754
0.081786 0.100614 0.053788
0.104296 0.103619 0.058201
0.131624 0.107746 0.064182
0.160101 0.112713 0.071087
0.187929 0.118251 0.078376
0.214869 0.124211 0.085791
0.240814 0.130473 0.093148
0.265736 0.136948 0.100321
0.289658 0.143578 0.107230
0.312626 0.150323 0.113828
0.334695 0.157059 0.120077
0.355926 0.163716 0.125967
0.376379 0.170273 0.131503
0.396113 0.176718 0.136697
0.415184 0.183041 0.141567
0.433641 0.189237 0.146133
0.451530 0.195300 0.150419
0.477259 0.201341 0.155089
0.519927 0.206733 0.159955
0.572656 0.210105 0.163018
0.630565 0.210293 0.162659
0.690557 0.206364 0.157567
0.750685 0.197481 0.146433
0.807561 0.186142 0.132748
0.851530 0.188790 0.141069
0.892133 0.191727 0.149110
0.929343 0.195014 0.156869
0.963209 0.198688 0.164352
0.993826 0.202767 0.171567
1.000000 0.207258 0.178522
1.000000 0.212152 0.185231
0.064437 0.133547 0.067318
0.080002 0.134971 0.069419
0.096105 0.136614 0.071846
0.117415 0.139024 0.075408
0.143013 0.142273 0.080160
0.169383 0.146138 0.085594
0.195650 0.150498 0.091449
0.221418 0.155242 0.097519
0.246468 0.160267 0.103634
0.270697 0.165486 0.109673
0.294069 0.170829 0.115548
0.316593 0.176242 0.121205
0.338299 0.181681 0.126610
0.359228 0.187117 0.131746
0.379428 0.192525 0.136610
0.398946 0.197888 0.141203
0.417829 0.203191 0.145537
0.436121 0.208425 0.149626
0.453863 0.213581 0.153488
0.480674 0.218724 0.157692
0.524018 0.223173 0.161735
0.577038 0.225688 0.163768
0.635009 0.225206 0.162257
0.694933 0.220866 0.155894
0.754921 0.211921 0.143220
0.808401 0.205413 0.136141
0.852232 0.207427 0.144250
0.892698 0.209720 0.152101
0.929778 0.212350 0.159689
0.963525 0.215354 0.167017
0.994032 0.218755 0.174090
1.000000 0.222563 0.180918
1.000000 0.226774 0.187509
0.082305 0.170017 0.085908
0.096592 0.171120 0.087586
0.111747 0.172396 0.089532
0.132069 0.174265 0.092386
0.155242 0.176688 0.096004
0.179543 0.179583 0.100183
0.204200 0.182883 0.104762
0.228715 0.186512 0.109587
0.252786 0.190399 0.114523
0.276241 0.194478 0.119464
0.298998 0.198697 0.124330
0.321026 0.203011 0.129065
0.342326 0.207384 0.133633
0.362919 0.211788 0.138011
0.382836 0.216202 0.142189
0.402114 0.220608 0.146165
0.420789 0.224992 0.149944
0.438898 0.229342 0.153537
0.456480 0.233650 0.156958
0.484797 0.237927 0.160617
0.528988 0.241443 0.163701
0.582377 0.243091 0.164529
0.640435 0.241914 0.161656
0.700285 0.237143 0.153667
0.760110 0.228125 0.138851
0.809536 0.226363 0.140437
0.853181 0.227798 0.148282
0.893467 0.229497 0.155894
0.930377 0.231513 0.163267
0.963967 0.233885 0.170400
0.994331 0.236638 0.177296
1.000000 0.239783 0.183962
1.000000 0.243325 0.190404
0.100351 0.203869 0.102828
0.113892 0.204765 0.104205
0.128411 0.205798 0.105795
0.146746 0.207244 0.107991
0.167624 0.209094 0.110737
0.190004 0.211317 0.113943
0.213098 0.213866 0.117499
0.236359 0.216688 0.121293
0.259428 0.219732 0.125221
0.282082 0.222950 0.129199
0.304194 0.226299 0.133159
0.325698 0.229744 0.137051
0.346568 0.233257 0.140839
0.366806 0.236815 0.144501
0.386425 0.240398 0.148026
0.405448 0.243990 0.151409
0.423904 0.247580 0.154654
0.441823 0.251156 0.157767
0.459407 0.254712 0.160768
0.489592 0.258182 0.163799
0.534793 0.260812 0.165813
0.588629 0.261626 0.165262
0.646802 0.259784 0.160655
0.706577 0.254594 0.150552
0.764390 0.247417 0.137932
0.811015 0.248177 0.145647
0.854422 0.249112 0.153179
0.894477 0.250290 0.160509
0.931172 0.251765 0.167625
0.964564 0.253572 0.174524
0.994747 0.255739 0.181207
1.000000 0.258279 0.187676
1.000000 0.261201 0.193939
0.119151 0.235466 0.118220
0.131803 0.236199 0.119329
0.144609 0.237007 0.120539
0.160848 0.238128 0.122191
0.179745 0.239565 0.124271
0.200382 0.241298 0.126719
0.222004 0.243293 0.129460
0.244050 0.245513 0.132413
0.266128 0.247919 0.135502
0.287978 0.250474 0.138661
0.309435 0.253144 0.141836
0.330405 0.255903 0.144986
0.350837 0.258727 0.148081
0.370711 0.261596 0.151101
0.390025 0.264494 0.154035
0.408790 0.267408 0.156880
0.427025 0.270327 0.159639
0.444751 0.273242 0.162318
0.462720 0.276146 0.164933
0.495044 0.278883 0.167196
0.541405 0.280711 0.167880
0.595763 0.280766 0.165580
0.654074 0.278295 0.158908
0.713763 0.272688 0.146315
0.766556 0.269890 0.144416
0.812887 0.270246 0.151745
0.855997 0.270762 0.158925
0.895768 0.271503 0.165934
0.932197 0.272516 0.172757
0.965346 0.273839 0.179387
0.995308 0.275496 0.185823
1.000000 0.277505 0.192066
1.000000 0.279874 0.198120
0.137475 0.264981 0.132219
0.148385 0.265554 0.133044
0.159633 0.266186 0.133946
0.174151 0.267063 0.135184
0.191343 0.268191 0.136749
0.210416 0.269555 0.138604
0.230674 0.271130 0.140697
0.251565 0.272888 0.142972
0.272683 0.274799 0.145374
0.293742 0.276836 0.147853
0.314550 0.278971 0.150368
0.334987 0.281182 0.152888
0.354980 0.283450 0.155389
0.374489 0.285759 0.157856
0.393498 0.288094 0.160281
0.412007 0.290446 0.162657
0.430025 0.292811 0.164942
0.447568 0.295184 0.167120
0.466491 0.297553 0.169148
0.501188 0.299644 0.170325
0.548828 0.300744 0.169448
0.603757 0.300091 0.165207
0.662214 0.297025 0.156203
0.720339 0.292166 0.144770
0.769231 0.292116 0.151761
0.815197 0.292144 0.158676
0.857945 0.292320 0.165474
0.897372 0.292701 0.172132
0.933482 0.293332 0.178632
0.966339 0.294248 0.184965
0.996036 0.295474 0.191127
1.000000 0.297028 0.197117
1.000000 0.298921 0.202935
0.153894 0.292549 0.145118
0.163460 0.292999 0.145727
0.173460 0.293496 0.146394
0.186545 0.294187 0.147313
0.202262 0.295076 0.148481
0.219938 0.296153 0.149874
0.238943 0.297401 0.151457
0.258749 0.298797 0.153192
0.278948 0.300319 0.155041
0.299239 0.301943 0.156967
0.319412 0.303651 0.158928
0.339325 0.305426 0.160890
0.358886 0.307251 0.162830
0.378039 0.309115 0.164728
0.396754 0.311006 0.166567
0.415019 0.312918 0.168337
0.432833 0.314843 0.170027
0.450202 0.316776 0.171632
0.470845 0.318683 0.172974
0.508082 0.320178 0.172916
0.557077 0.320603 0.170324
0.612601 0.319290 0.163943
0.671197 0.315661 0.152299
0.723983 0.314126 0.153339
0.772459 0.313822 0.159870
0.817985 0.313591 0.166355
0.860302 0.313495 0.172754
0.899322 0.313586 0.179040
0.935056 0.313906 0.185197
0.967570 0.314488 0.191212
0.996956 0.315356 0.197078
1.000000 0.316529 0.202794
1.000000 0.318019 0.208357
0.168649 0.318357 0.157223
0.177147 0.318713 0.157655
0.186125 0.319105 0.158128
0.198003 0.319652 0.158780
0.212441 0.320358 0.159610
0.228873 0.321214 0.160601
0.246733 0.322209 0.161727
0.265528 0.323326 0.162959
0.284858 0.324547 0.164268
0.304415 0.325855 0.165624
0.323975 0.327233 0.167001
0.343379 0.328666 0.168376
0.362519 0.330143 0.169730
0.381325 0.331652 0.171048
0.399752 0.333185 0.172316
0.417777 0.334734 0.173525
0.435391 0.336294 0.174668
0.452593 0.337862 0.175738
0.475937 0.339346 0.176262
0.515810 0.340282 0.174801
0.566190 0.340077 0.170323
0.622302 0.338145 0.161573
0.677867 0.335853 0.156513
0.728304 0.335350 0.162557
0.776276 0.334847 0.168630
0.821282 0.334413 0.174682
0.863095 0.334103 0.180675
0.901642 0.333965 0.186581
0.936941 0.334036 0.192382
0.969059 0.334347 0.198066
0.998085 0.334923 0.203623
1.000000 0.335781 0.209050
1.000000 0.336933 0.214344
0.181998 0.342680 0.167879
0.189624 0.342962 0.168162
0.197749 0.343273 0.168471
0.208596 0.343707 0.168898
0.221916 0.344269 0.169441
0.237232 0.344952 0.170088
0.254044 0.345747 0.170821
0.271895 0.346642 0.171622
0.290400 0.347622 0.172468
0.309251 0.348673 0.173338
0.328215 0.349782 0.174214
0.347121 0.350938 0.175079
0.365846 0.352128 0.175918
0.384308 0.353345 0.176720
0.402451 0.354581 0.177474
0.420242 0.355830 0.178173
0.437661 0.357088 0.178811
0.454704 0.358350 0.179383
0.481954 0.359427 0.178862
0.524479 0.359829 0.175814
0.576219 0.359027 0.169251
0.631838 0.357008 0.161237
0.683425 0.356417 0.166712
0.733336 0.355759 0.172294
0.780710 0.355104 0.177922
0.825112 0.354514 0.183548
0.866345 0.354038 0.189138
0.904352 0.353720 0.194664
0.939155 0.353594 0.200107
0.970822 0.353690 0.205454
0.999440 0.354029 0.210695
1.000000 0.354629 0.215825
1.000000 0.355502 0.220840
0.194096 0.365679 0.177108
0.200995 0.365902 0.177272
0.208398 0.366149 0.177451
0.218356 0.366493 0.177696
0.230692 0.366939 0.178006
0.245006 0.367482 0.178372
0.260858 0.368116 0.178782
0.277829 0.368830 0.179223
0.295552 0.369613 0.179679
0.313725 0.370455 0.180135
0.332110 0.371343 0.180580
0.350529 0.372270 0.180999
0.368847 0.373224 0.181384
0.386970 0.374199 0.181726
0.404833 0.375189 0.182016
0.422392 0.376188 0.182251
0.439619 0.377192 0.182426
0.457382 0.378186 0.182446
0.489098 0.378853 0.180621
0.534205 0.378735 0.175777
0.587091 0.377413 0.167392
0.638703 0.376821 0.172244
0.689825 0.376101 0.177278
0.739097 0.375325 0.182424
0.785777 0.374556 0.187627
0.829488 0.373847 0.192844
0.870065 0.373245 0.198041
0.907463 0.372789 0.203195
0.941710 0.372509 0.208284
0.972871 0.372434 0.213297
1.000000 0.372583 0.218222
1.000000 0.372974 0.223053
1.000000 0.373620 0.227785
0.205059 0.387484 0.185048
0.211348 0.387659 0.185115
0.218133 0.387854 0.185188
0.227320 0.388125 0.185286
0.238787 0.388477 0.185405
0.252199 0.388907 0.185540
0.267171 0.389409 0.185681
0.283322 0.389975 0.185820
0.300306 0.390597 0.185946
0.317829 0.391266 0.186048
0.335655 0.391972 0.186119
0.353598 0.392708 0.186149
0.371515 0.393466 0.186132
0.389304 0.394239 0.186062
0.406889 0.395023 0.185935
0.424219 0.395812 0.185747
0.441258 0.396604 0.185495
0.461531 0.397331 0.184733
0.497574 0.397580 0.181365
0.545035 0.396971 0.174803
0.595202 0.396443 0.179013
0.646562 0.395734 0.183469
0.697078 0.394915 0.188096
0.745595 0.394051 0.192835
0.791481 0.393197 0.197638
0.834416 0.392402 0.202466
0.874261 0.391706 0.207289
0.910983 0.391144 0.212082
0.944612 0.390747 0.216829
0.975212 0.390538 0.221514
1.000000 0.390537 0.226128
1.000000 0.390761 0.230663
1.000000 0.391221 0.235115
0.214994 0.408208 0.191812
0.220761 0.408344 0.191802
0.227015 0.408496 0.191788
0.235528 0.408709 0.191765
0.246224 0.408984 0.191727
0.258823 0.409321 0.191670
0.272989 0.409714 0.191587
0.288377 0.410159 0.191470
0.304664 0.410648 0.191314
0.321568 0.411173 0.191111
0.338853 0.411727 0.190857
0.356331 0.412304 0.190545
0.373855 0.412898 0.190172
0.391314 0.413502 0.189734
0.408624 0.414112 0.189228
0.425725 0.414725 0.188654
0.442577 0.415337 0.188009
0.467475 0.415764 0.186060
0.507177 0.415643 0.183265
0.554135 0.415225 0.186843
0.604503 0.414580 0.190715
0.655417 0.413780 0.194809
0.705180 0.412888 0.199063
0.752824 0.411961 0.203427
0.797818 0.411046 0.207858
0.839892 0.410189 0.212321
0.878930 0.409424 0.216790
0.914909 0.408785 0.221241
0.947861 0.408299 0.225659
0.977848 0.407987 0.230029
1.000000 0.407869 0.234341
1.000000 0.407959 0.238588
1.000000 0.408269 0.242765
0.223988 0.427950 0.197499
0.229308 0.428056 0.197424
0.235100 0.428173 0.197339
0.243023 0.428337 0.197216
0.253033 0.428550 0.197048
0.264898 0.428810 0.196830
0.278326 0.429114 0.196557
0.293005 0.429458 0.196224
0.308635 0.429836 0.195826
0.324947 0.430241 0.195359
0.341711 0.430669 0.194821
0.358737 0.431112 0.194207
0.375875 0.431567 0.193517
0.393007 0.432029 0.192747
0.410044 0.432492 0.191899
0.426919 0.432956 0.190970
0.444531 0.433393 0.189978
0.474880 0.433438 0.192561
0.516752 0.433152 0.195543
0.564703 0.432607 0.198850
0.614983 0.431870 0.202417
0.665251 0.431002 0.206183
0.714114 0.430058 0.210097
0.760769 0.429086 0.214117
0.804775 0.428131 0.218203
0.845905 0.427232 0.222328
0.884064 0.426420 0.226465
0.919236 0.425726 0.230594
0.951453 0.425174 0.234700
0.980774 0.424784 0.238770
1.000000 0.424575 0.242793
1.000000 0.424661 0.246744
1.000000 0.425303 0.250573
0.232123 0.446801 0.202187
0.237055 0.446881 0.202060
0.242443 0.446969 0.201916
0.249845 0.447094 0.201710
0.259243 0.447255 0.201432
0.270445 0.447452 0.201079
0.283196 0.447682 0.200645
0.297217 0.447942 0.200127
0.312229 0.448227 0.199520
0.327978 0.448532 0.198824
0.344240 0.448853 0.198036
0.360827 0.449184 0.197155
0.377587 0.449522 0.196180
0.394543 0.449759 0.196856
0.411377 0.449969 0.198584
0.427909 0.450217 0.200432
0.449021 0.450393 0.202482
0.484154 0.450245 0.204921
0.528218 0.449818 0.207701
0.576700 0.449210 0.210755
0.626571 0.448538 0.214015
0.675951 0.447871 0.217429
0.723710 0.447275 0.220953
0.769193 0.446811 0.224546
0.812031 0.446537 0.228174
0.852036 0.446505 0.231809
0.889128 0.446764 0.235426
0.923296 0.447355 0.239006
0.954569 0.448318 0.242531
0.983000 0.449684 0.245988
1.000000 0.451482 0.249366
1.000000 0.453734 0.252657
1.000000 0.456459 0.255852
0.234893 0.469437 0.202781
0.239544 0.469551 0.202549
0.244638 0.469679 0.202287
0.251653 0.469861 0.201911
0.260589 0.470103 0.201405
0.271281 0.470406 0.200758
0.283853 0.470690 0.200685
0.298001 0.470946 0.201369
0.313068 0.471260 0.202159
0.328782 0.471640 0.203056
0.344907 0.472095 0.204057
0.361242 0.472632 0.205162
0.377629 0.473261 0.206367
0.393939 0.473990 0.207671
0.410074 0.474830 0.209070
0.426406 0.475782 0.210567
0.453760 0.476621 0.212341
0.492704 0.477291 0.214437
0.538305 0.477850 0.216805
0.586927 0.478357 0.219397
0.636175 0.478870 0.222169
0.684550 0.479442 0.225077
0.731146 0.480124 0.228084
0.775426 0.480964 0.231157
0.817089 0.482003 0.234267
0.855978 0.483281 0.237389
0.892028 0.484830 0.240502
0.925232 0.486680 0.243587
0.955617 0.488856 0.246631
0.983232 0.491377 0.249620
1.000000 0.494262 0.252545
1.000000 0.497521 0.255397
1.000000 0.501163 0.258170
0.228040 0.509751 0.205697
0.232869 0.509857 0.205842
0.238145 0.509977 0.206005
0.245389 0.510151 0.206238
0.254581 0.510386 0.206548
0.265530 0.510690 0.206940
0.277977 0.511068 0.207417
0.291639 0.511529 0.207981
0.306235 0.512078 0.208632
0.321502 0.512722 0.209372
0.337211 0.513469 0.210199
0.353167 0.514326 0.211113
0.369210 0.515300 0.212112
0.385212 0.516398 0.213195
0.401071 0.517628 0.214358
0.421567 0.518909 0.215673
0.455329 0.520068 0.217291
0.497855 0.521138 0.219183
0.545036 0.522162 0.221308
0.593993 0.523186 0.223628
0.642863 0.524253 0.226105
0.690482 0.525404 0.228703
0.736141 0.526678 0.231389
0.779420 0.528109 0.234135
0.820082 0.529731 0.236915
0.858006 0.531569 0.239707
0.893143 0.533651 0.242494
0.925494 0.535995 0.245258
0.955088 0.538619 0.247986
0.981971 0.541537 0.250667
1.000000 0.544760 0.253292
1.000000 0.548295 0.255853
1.000000 0.552147 0.258345
0.210808 0.560315 0.208604
0.215745 0.560439 0.208730
0.221131 0.560579 0.208871
0.228515 0.560781 0.209072
0.237870 0.561054 0.209340
0.248991 0.561405 0.209679
0.261612 0.561839 0.210092
0.275445 0.562364 0.210581
0.290203 0.562986 0.211146
0.305625 0.563710 0.211789
0.321481 0.564543 0.212508
0.337577 0.565491 0.213304
0.353754 0.566560 0.214174
0.369886 0.567755 0.215119
0.387068 0.569064 0.216151
0.416086 0.570325 0.217432
0.455659 0.571517 0.218979
0.501387 0.572671 0.220763
0.549989 0.573819 0.222752
0.599269 0.574995 0.224912
0.647823 0.576232 0.227210
0.694779 0.577562 0.229615
0.739602 0.579013 0.232100
0.781976 0.580614 0.234638
0.821724 0.582389 0.237207
0.858758 0.584358 0.239787
0.893050 0.586540 0.242362
0.924608 0.588952 0.244916
0.953462 0.591605 0.247438
0.979658 0.594511 0.249917
1.000000 0.597677 0.252345
1.000000 0.601108 0.254715
1.000000 0.604808 0.257021
0.180747 0.614474 0.208796
0.186221 0.614597 0.208909
0.192159 0.614737 0.209036
0.200247 0.614938 0.209217
0.210417 0.615209 0.209459
0.222412 0.615556 0.209765
0.235918 0.615985 0.210137
0.250611 0.616503 0.210579
0.266184 0.617113 0.211089
0.282364 0.617823 0.211671
0.298918 0.618636 0.212322
0.315654 0.619559 0.213043
0.332418 0.620595 0.213833
0.349135 0.621750 0.214691
0.374467 0.622921 0.215731
0.411686 0.624043 0.217024
0.456268 0.625134 0.218552
0.504641 0.626217 0.220289
0.554346 0.627317 0.222206
0.603788 0.628459 0.224274
0.651961 0.629669 0.226466
0.698238 0.630971 0.228755
0.742234 0.632389 0.231114
0.783724 0.633943 0.233521
0.822583 0.635654 0.235956
0.858754 0.637537 0.238401
0.892223 0.639608 0.240839
0.923008 0.641880 0.243259
0.951141 0.644361 0.245647
0.976667 0.647062 0.247996
0.999639 0.649987 0.250296
1.000000 0.653141 0.252543
1.000000 0.656526 0.254729
0.134300 0.668238 0.207311
0.141252 0.668352 0.207416
0.148664 0.668482 0.207534
0.158571 0.668668 0.207702
0.170767 0.668919 0.207928
0.184844 0.669241 0.208212
0.200375 0.669637 0.208560
0.216965 0.670115 0.208971
0.234272 0.670678 0.209448
0.252013 0.671330 0.209990
0.269963 0.672078 0.210599
0.287943 0.672924 0.211274
0.305817 0.673873 0.212014
0.329402 0.674874 0.212886
0.365522 0.675844 0.213992
0.409739 0.676791 0.215323
0.458308 0.677730 0.216861
0.508623 0.678679 0.218585
0.558990 0.679655 0.220470
0.608333 0.680679 0.222492
0.655970 0.681772 0.224624
0.701478 0.682952 0.226843
0.744594 0.684239 0.229126
0.785167 0.685649 0.231452
0.823116 0.687198 0.233803
0.858410 0.688900 0.236162
0.891047 0.690767 0.238515
0.921051 0.692810 0.240848
0.948457 0.695036 0.243153
0.973308 0.697453 0.245419
0.995654 0.700066 0.247640
1.000000 0.702879 0.249809
1.000000 0.705893 0.251922
0.048430 0.719576 0.204938
0.062734 0.719678 0.205038
0.076333 0.719794 0.205150
0.092793 0.719961 0.205311
0.111277 0.720185 0.205526
0.131010 0.720472 0.205797
0.151447 0.720826 0.206129
0.172213 0.721251 0.206522
0.193047 0.721753 0.206977
0.213764 0.722334 0.207497
0.234233 0.722999 0.208080
0.254357 0.723751 0.208727
0.279108 0.724559 0.209484
0.316330 0.725351 0.210453
0.361639 0.726130 0.211631
0.411250 0.726902 0.213011
0.462603 0.727678 0.214575
0.514056 0.728473 0.216307
0.564572 0.729300 0.218184
0.613486 0.730176 0.220184
0.660376 0.731117 0.222284
0.704973 0.732139 0.224463
0.747112 0.733257 0.226700
0.786699 0.734486 0.228977
0.823687 0.735838 0.231275
0.858062 0.737324 0.233580
0.889834 0.738956 0.235878
0.919030 0.740742 0.238158
0.945684 0.742689 0.240410
0.969838 0.744803 0.242626
0.991538 0.747089 0.244798
1.000000 0.749549 0.246921
1.000000 0.752188 0.248991
0.000000 0.767519 0.202310
0.000000 0.767608 0.202406
0.000000 0.767710 0.202515
0.000000 0.767856 0.202671
0.000000 0.768052 0.202879
0.026867 0.768302 0.203143
0.072578 0.768612 0.203464
0.107337 0.768984 0.203846
0.137309 0.769421 0.204289
0.164552 0.769929 0.204794
0.189932 0.770508 0.205362
0.220514 0.771132 0.206041
0.262753 0.771750 0.206908
0.311643 0.772362 0.207968
0.363713 0.772970 0.209217
0.416826 0.773580 0.210646
0.469671 0.774201 0.212243
0.521421 0.774843 0.213991
0.571537 0.775520 0.215870
0.619663 0.776243 0.217862
0.665561 0.777026 0.219945
0.709078 0.777882 0.222100
0.750117 0.778824 0.224308
0.788625 0.779864 0.226552
0.824578 0.781013 0.228816
0.857976 0.782281 0.231086
0.888834 0.783676 0.233348
0.917179 0.785207 0.235593
0.943045 0.786879 0.237812
0.966470 0.788698 0.239995
0.987495 0.790668 0.242138
1.000000 0.792792 0.244233
1.000000 0.795072 0.246278
0.000000 0.811659 0.199950
0.000000 0.811737 0.200044
0.000000 0.811824 0.200151
0.000000 0.811950 0.200303
0.000000 0.812119 0.200507
0.000000 0.812335 0.200766
0.000000 0.812601 0.201081
0.000000 0.812921 0.201456
0.037196 0.813298 0.201891
0.093355 0.813733 0.202391
0.146393 0.814191 0.203017
0.202487 0.814652 0.203808
0.259396 0.815111 0.204772
0.316110 0.815569 0.205910
0.372014 0.816029 0.207221
0.426673 0.816495 0.208695
0.479750 0.816975 0.210322
0.530982 0.817476 0.212085
0.580163 0.818010 0.213969
0.627139 0.818588 0.215956
0.671794 0.819219 0.218026
0.714048 0.819916 0.220163
0.753851 0.820689 0.222348
0.791174 0.821549 0.224567
0.826008 0.822504 0.226804
0.858359 0.823563 0.229046
0.888244 0.824735 0.231282
0.915687 0.826025 0.233500
0.940719 0.827440 0.235694
0.963374 0.828984 0.237854
0.983688 0.830661 0.239976
1.000000 0.832474 0.242054
1.000000 0.834425 0.244083
0.000000 0.851881 0.198295
0.000000 0.851946 0.198388
0.000000 0.852021 0.198493
0.000000 0.852128 0.198643
0.000000 0.852272 0.198844
0.000000 0.852456 0.199099
0.000000 0.852683 0.199410
0.000000 0.852955 0.199780
0.000000 0.853261 0.200237
0.012051 0.853578 0.200823
0.130198 0.853903 0.201551
0.204780 0.854231 0.202434
0.269390 0.854559 0.203475
0.329323 0.854889 0.204676
0.386211 0.855222 0.206035
0.440647 0.855562 0.207543
0.492836 0.855916 0.209190
0.542821 0.856292 0.210963
0.590580 0.856697 0.212846
0.636068 0.857141 0.214823
0.679238 0.857633 0.216877
0.720051 0.858183 0.218993
0.758480 0.858800 0.221154
0.794510 0.859492 0.223347
0.828136 0.860269 0.225556
0.859366 0.861137 0.227771
0.888213 0.862103 0.229979
0.914699 0.863173 0.232173
0.938848 0.864354 0.234342
0.960689 0.865648 0.236481
0.980252 0.867059 0.238584
0.997566 0.868591 0.240645
1.000000 0.870245 0.242661
0.000000 0.888216 0.197701
0.000000 0.888271 0.197792
0.000000 0.888334 0.197896
0.000000 0.888424 0.198044
0.000000 0.888545 0.198242
0.000000 0.888698 0.198497
0.000000 0.888874 0.198833
0.000000 0.889067 0.199267
0.000000 0.889272 0.199812
0.016829 0.889486 0.200483
0.148670 0.889704 0.201289
0.225759 0.889924 0.202239
0.290729 0.890145 0.203336
0.349949 0.890366 0.204582
0.405532 0.890591 0.205971
0.458339 0.890824 0.207498
0.508738 0.891069 0.209151
0.556876 0.891333 0.210921
0.602800 0.891623 0.212791
0.646506 0.891948 0.214749
0.687975 0.892314 0.216779
0.727182 0.892731 0.218866
0.764109 0.893207 0.220995
0.798741 0.893748 0.223154
0.831072 0.894363 0.225330
0.861107 0.895059 0.227511
0.888852 0.895840 0.229687
