assets/luts/alexa_look_33.cube
TITLE "Alexa Look 33"
LUT_3D_SIZE 9
DOMAIN_MIN 0.0 0.0 0.0
DOMAIN_MAX 1.0 1.0 1.0
0.009999 0.010001 0.010001
0.108678 0.028920 0.029581
0.230234 0.070426 0.072532
0.327880 0.106764 0.106948
0.409901 0.139517 0.133286
0.512369 0.172055 0.156151
0.742964 0.167445 0.151863
0.928675 0.157910 0.152011
1.000000 0.182213 0.181305
0.064437 0.133547 0.067318
0.143013 0.142273 0.080160
0.246468 0.160267 0.103634
0.338299 0.181681 0.126610
0.417829 0.203191 0.145537
0.524018 0.223173 0.161735
0.754921 0.211921 0.143220
0.929778 0.212350 0.159689
1.000000 0.226774 0.187509
0.137475 0.264981 0.132219
0.191343 0.268191 0.136749
0.272683 0.274799 0.145374
0.354980 0.283450 0.155389
0.430025 0.292811 0.164942
0.548828 0.300744 0.169448
0.769231 0.292116 0.151761
0.933482 0.293332 0.178632
1.000000 0.298921 0.202935
0.194096 0.365679 0.177108
0.230692 0.366939 0.178006
0.295552 0.369613 0.179679
0.368847 0.373224 0.181384
0.439619 0.377192 0.182426
0.587091 0.377413 0.167392
0.785777 0.374556 0.187627
0.941710 0.372509 0.208284
1.000000 0.373620 0.227785
0.232123 0.446801 0.202187
0.259243 0.447255 0.201432
0.312229 0.448227 0.199520
0.377587 0.449522 0.196180
0.449021 0.450393 0.202482
0.626571 0.448538 0.214015
0.812031 0.446537 0.228174
0.954569 0.448318 0.242531
1.000000 0.456459 0.255852
0.180747 0.614474 0.208796
0.210417 0.615209 0.209459
0.266184 0.617113 0.211089
0.332418 0.620595 0.213833
0.456268 0.625134 0.218552
0.651961 0.629669 0.226466
0.822583 0.635654 0.235956
0.951141 0.644361 0.245647
1.000000 0.656526 0.254729
0.000000 0.811659 0.199950
0.000000 0.812119 0.200507
0.037196 0.813298 0.201891
0.259396 0.815111 0.204772
0.479750 0.816975 0.210322
0.671794 0.819219 0.218026
0.826008 0.822504 0.226804
0.940719 0.827440 0.235694
1.000000 0.834425 0.244083
0.000000 0.949593 0.200888
0.000000 0.949724 0.201599
0.066168 0.949965 0.203573
0.354975 0.950210 0.207384
0.547662 0.950453 0.213169
0.709321 0.950919 0.220501
0.843157 0.949064 0.323162
0.934876 0.949886 0.417151
0.989864 0.953748 0.482196
0.291737 1.000000 0.302491
0.343760 1.000000 0.314351
0.445033 1.000000 0.343204
0.571063 1.000000 0.389743
0.697481 1.000000 0.448854
0.808181 1.000000 0.512619
0.894930 1.000000 0.573067
0.955797 1.000000 0.623758
0.992391 1.000000 0.660187
0.011980 0.008719 0.104152
0.113582 0.028727 0.115004
0.231482 0.070510 0.138488
0.327878 0.107591 0.163328
0.409469 0.141563 0.185470
0.513595 0.173123 0.206708
0.744567 0.165648 0.211274
0.928818 0.156622 0.213354
1.000000 0.180687 0.232125
0.067288 0.138068 0.138114
0.146342 0.146341 0.146341
0.247215 0.163054 0.162613
0.338006 0.183150 0.180768
0.417066 0.203517 0.197264
0.525083 0.222468 0.212890
0.756371 0.209426 0.206170
0.929987 0.210489 0.217545
1.000000 0.224912 0.235869
0.139812 0.263904 0.186539
0.192295 0.267008 0.190289
0.272436 0.273423 0.197632
0.354137 0.281876 0.206394
0.428947 0.291115 0.214663
0.549963 0.298780 0.220108
0.770091 0.289834 0.211065
0.933801 0.291120 0.228713
1.000000 0.296840 0.245727
0.195210 0.363678 0.221513
0.231178 0.364919 0.222489
0.295298 0.367564 0.224377
0.368125 0.371153 0.226462
0.438669 0.375117 0.228009
0.588460 0.375147 0.218917
0.786780 0.372339 0.233067
0.942123 0.370392 0.248191
1.000000 0.371637 0.262955
0.232921 0.444841 0.240906
0.259693 0.445291 0.240460
0.312176 0.446257 0.239276
0.377139 0.447552 0.237079
0.449406 0.448457 0.241596
0.628158 0.447073 0.250358
0.812913 0.445865 0.261352
0.954798 0.448516 0.272673
1.000000 0.457502 0.283262
0.176749 0.616667 0.241314
0.206830 0.617407 0.241817
0.263109 0.619322 0.243052
0.329727 0.622821 0.245131
0.456846 0.627341 0.248845
0.652766 0.631893 0.255233
0.822877 0.637913 0.262970
0.950979 0.646648 0.270903
1.000000 0.658817 0.278325
0.000000 0.813050 0.228748
0.000000 0.813508 0.229187
0.022218 0.814683 0.230279
0.260533 0.816466 0.232626
0.481327 0.818306 0.237218
0.672738 0.820537 0.243648
0.826360 0.823809 0.251019
0.940631 0.828726 0.258508
1.000000 0.835682 0.265570
0.000000 0.950107 0.225624
0.000000 0.950232 0.226229
0.079000 0.950464 0.227911
0.358233 0.950699 0.231171
0.549575 0.950934 0.236142
0.710389 0.951394 0.242473
0.843794 0.949428 0.339854
0.934968 0.950298 0.428592
0.989636 0.954172 0.491033
0.299045 1.000000 0.317952
0.349809 1.000000 0.329085
0.449379 1.000000 0.356336
0.573977 1.000000 0.400704
0.699317 1.000000 0.457608
0.809243 1.000000 0.519482
0.895461 1.000000 0.578460
0.955979 1.000000 0.628079
0.992348 1.000000 0.663771
0.024048 0.025395 0.210847
0.126462 0.048179 0.217867
0.235225 0.085163 0.232535
0.328810 0.120844 0.249755
0.409277 0.152252 0.266057
0.517840 0.179425 0.283784
0.749628 0.166283 0.294619
0.929558 0.159972 0.298651
1.000000 0.182103 0.308920
0.080120 0.149766 0.231878
0.155057 0.157057 0.237520
0.249825 0.171449 0.248645
0.338164 0.189233 0.261966
0.416188 0.207625 0.274786
0.529076 0.224493 0.288921
0.761039 0.207410 0.292063
0.930863 0.210595 0.300240
1.000000 0.224293 0.310493
0.147913 0.264582 0.264212
0.196604 0.267441 0.267265
0.273401 0.273405 0.273405
0.353376 0.281358 0.280994
0.427411 0.290126 0.288389
0.553996 0.296847 0.295569
0.772685 0.287437 0.294953
0.934895 0.288619 0.305018
1.000000 0.294320 0.315053
0.199350 0.361083 0.290579
0.233633 0.362258 0.291692
0.295732 0.364781 0.293945
0.367238 0.368238 0.296662
0.437094 0.372089 0.299059
0.592483 0.371619 0.296640
0.789629 0.368815 0.305208
0.943389 0.366974 0.314650
1.000000 0.368380 0.324054
0.235605 0.441432 0.305542
0.261478 0.441863 0.305492
0.312647 0.442795 0.305240
0.376474 0.444247 0.304437
0.450974 0.445970 0.307228
0.632266 0.446005 0.312796
0.815194 0.446589 0.319958
0.955421 0.451164 0.327383
1.000000 0.461961 0.334277
0.167043 0.623001 0.299099
0.198164 0.623748 0.299403
0.255702 0.625677 0.300149
0.323238 0.629191 0.301398
0.458801 0.633630 0.303853
0.655010 0.638185 0.308246
0.823751 0.644243 0.313603
0.950669 0.652988 0.319063
1.000000 0.665105 0.324075
0.000000 0.816873 0.282075
0.000000 0.817325 0.282359
0.000000 0.818487 0.283063
0.264386 0.820185 0.284716
0.485602 0.821960 0.288010
0.675277 0.824145 0.292659
0.827357 0.827371 0.298001
0.940492 0.832224 0.303407
1.000000 0.839089 0.308441
0.000000 0.951565 0.273580
0.000000 0.951678 0.274035
0.107442 0.951885 0.275301
0.366682 0.952092 0.277758
0.554542 0.952305 0.281519
0.713183 0.952746 0.286328
0.845496 0.950481 0.375951
0.935268 0.951465 0.454412
0.989113 0.955360 0.511365
0.316396 1.000000 0.354742
0.364307 1.000000 0.364494
0.459866 1.000000 0.388618
0.580970 1.000000 0.428576
0.703633 1.000000 0.480827
0.811604 1.000000 0.538626
0.896463 1.000000 0.594466
0.956066 1.000000 0.641951
0.991797 1.000000 0.676510
0.078456 0.103818 0.299413
0.152486 0.113795 0.304723
0.245773 0.132624 0.315364
0.333425 0.154908 0.328561
0.411235 0.177127 0.341740
0.527950 0.196728 0.358421
0.760264 0.175377 0.373125
0.931631 0.175587 0.378186
1.000000 0.193188 0.384196
0.114959 0.176873 0.314018
0.173393 0.182140 0.318282
0.257569 0.192849 0.326920
0.341152 0.206662 0.337782
0.416988 0.221436 0.348724
0.538720 0.234239 0.362969
0.769276 0.213312 0.372554
0.933107 0.218827 0.378653
1.000000 0.230418 0.384715
0.164879 0.271977 0.338282
0.207202 0.274376 0.340914
0.277902 0.279456 0.346360
0.354476 0.286348 0.353363
0.426839 0.294040 0.360478
0.563410 0.298691 0.369717
0.778099 0.289344 0.374262
0.937406 0.289996 0.380405
1.000000 0.295178 0.386496
0.208626 0.361064 0.360410
0.240002 0.362103 0.361626
0.298462 0.364355 0.364181
0.367464 0.367476 0.367475
0.435933 0.370982 0.370709
0.600781 0.369715 0.373196
0.795281 0.366762 0.378652
0.946077 0.364898 0.384675
1.000000 0.366313 0.390632
0.239460 0.441017 0.373821
0.263835 0.441661 0.374025
0.312692 0.443208 0.374343
0.374915 0.445667 0.374769
0.454768 0.448951 0.376527
0.639498 0.450974 0.379992
0.819172 0.454058 0.384486
0.956516 0.461216 0.389069
1.000000 0.474296 0.393158
0.150246 0.635886 0.363263
0.183398 0.636630 0.363430
0.243250 0.638550 0.363837
0.312377 0.642037 0.364508
0.463527 0.646252 0.366113
0.659443 0.650729 0.369047
0.825587 0.656744 0.372597
0.950350 0.665381 0.376123
1.000000 0.677273 0.379202
0.000000 0.824295 0.343847
0.000000 0.824735 0.344016
0.000000 0.825857 0.344441
0.273864 0.827392 0.345606
0.493869 0.829042 0.347918
0.680132 0.831127 0.351176
0.829371 0.834216 0.355250
0.940424 0.838832 0.360098
1.000000 0.845317 0.365751
0.000000 0.953345 0.351228
0.000000 0.953416 0.351861
0.145468 0.953529 0.353548
0.380584 0.953593 0.356700
0.562626 0.953615 0.361513
0.717821 0.953692 0.369560
0.847736 0.950915 0.445183
0.935171 0.951759 0.509630
0.987614 0.955271 0.559033
0.329662 1.000000 0.456719
0.375638 1.000000 0.463436
0.468182 1.000000 0.480383
0.586262 1.000000 0.509456
0.706308 1.000000 0.549183
0.812242 1.000000 0.595064
0.895665 1.000000 0.640992
0.954304 1.000000 0.681093
0.989340 1.000000 0.710849
0.135161 0.167902 0.375143
0.184639 0.172892 0.379059
0.261637 0.183163 0.387194
0.341529 0.196587 0.397799
0.415557 0.211014 0.408962
0.545568 0.222356 0.426047
0.774477 0.196413 0.443132
0.935562 0.201140 0.448675
1.000000 0.212127 0.455029
0.155118 0.213133 0.385569
0.198703 0.216556 0.388889
0.270424 0.223758 0.395858
0.347433 0.233428 0.405077
0.419966 0.244078 0.414902
0.555759 0.251323 0.430493
0.777845 0.232834 0.443926
0.937170 0.234884 0.449801
1.000000 0.242309 0.456500
0.188752 0.286840 0.405146
0.223805 0.288648 0.407474
0.286544 0.292535 0.412468
0.358157 0.297881 0.419267
0.427843 0.303861 0.426723
0.579815 0.304859 0.439191
0.786932 0.296115 0.447140
0.941611 0.295004 0.453715
1.000000 0.297940 0.461146
0.222511 0.364181 0.428354
0.250216 0.364988 0.429758
0.303742 0.366738 0.432867
0.369072 0.369140 0.437303
0.437007 0.371722 0.442496
0.614141 0.368920 0.449867
0.803952 0.364919 0.456119
0.950155 0.361846 0.463557
1.000000 0.361714 0.471892
0.234824 0.450314 0.453799
0.258320 0.451124 0.454467
0.306872 0.452925 0.455766
0.368954 0.455935 0.457526
0.460320 0.460294 0.460297
0.648625 0.463714 0.464987
0.823719 0.468524 0.471121
0.956984 0.477179 0.478170
1.000000 0.491122 0.485856
0.109126 0.651037 0.465849
0.149931 0.651721 0.466266
0.217304 0.653482 0.467316
0.294642 0.656642 0.469175
0.469212 0.660162 0.472532
0.664310 0.664005 0.477563
0.826767 0.669275 0.483887
0.948406 0.676935 0.491159
1.000000 0.687555 0.499179
0.000000 0.827596 0.487319
0.000000 0.827978 0.487782
0.000000 0.828893 0.488991
0.280947 0.830022 0.491434
0.501364 0.831204 0.495382
0.683756 0.832738 0.500786
0.829391 0.835171 0.507416
0.937658 0.839023 0.515032
1.000000 0.844643 0.523470
0.000000 0.947388 0.527410
0.000000 0.947412 0.527969
0.171102 0.947417 0.529424
0.392538 0.947323 0.532069
0.569269 0.947149 0.536032
0.720646 0.946914 0.542777
0.847109 0.944443 0.583854
0.932462 0.945407 0.623448
0.983606 0.948832 0.656326
0.335652 1.000000 0.600276
0.380965 1.000000 0.604023
0.472157 1.000000 0.613644
0.588355 1.000000 0.630719
0.706370 1.000000 0.655225
0.810543 0.998270 0.685134
0.892674 0.997870 0.716655
0.950426 0.999193 0.745334
0.984756 1.000000 0.767237
0.146363 0.145513 0.523327
0.187834 0.149385 0.527161
0.257027 0.157416 0.535593
0.332365 0.167866 0.547598
0.403967 0.178825 0.561579
0.556133 0.181279 0.589285
0.781160 0.129401 0.622769
0.937014 0.126591 0.629686
1.000000 0.133749 0.637335
0.161149 0.185616 0.534955
0.198802 0.188279 0.538441
0.264101 0.193900 0.546167
0.337113 0.201369 0.557276
0.407471 0.209331 0.570336
0.566037 0.208546 0.597443
0.784617 0.172425 0.625327
0.938668 0.168653 0.632232
1.000000 0.172301 0.639863
0.188158 0.252516 0.559915
0.219634 0.253905 0.562747
0.277834 0.256872 0.569127
0.346252 0.260850 0.578506
0.414374 0.265055 0.589801
0.589909 0.258829 0.615782
0.793715 0.241596 0.631995
0.943101 0.236807 0.638841
1.000000 0.236941 0.646403
0.217611 0.324413 0.594516
0.243200 0.324988 0.596636
0.293601 0.326203 0.601520
0.356377 0.327760 0.608925
0.432748 0.328834 0.619237
0.625455 0.320108 0.638439
0.810367 0.313819 0.644177
0.951409 0.308580 0.650860
1.000000 0.309331 0.658144
0.193044 0.442033 0.643980
0.221367 0.442863 0.644332
0.275407 0.445040 0.645214
0.340373 0.449105 0.646750
0.458170 0.454378 0.649215
0.652579 0.459192 0.653048
0.823639 0.465870 0.657905
0.952731 0.476460 0.663449
1.000000 0.492103 0.669463
0.000000 0.653565 0.656717
0.000000 0.654228 0.657033
0.142161 0.655933 0.657829
0.264457 0.658836 0.659280
0.470017 0.661909 0.661827
0.665502 0.665469 0.665473
0.824297 0.670490 0.669989
0.942557 0.677841 0.675150
1.000000 0.688051 0.680795
0.000000 0.822992 0.673632
0.000000 0.823346 0.673941
0.000000 0.824069 0.674792
0.285861 0.824949 0.676460
0.507522 0.825915 0.679087
0.685789 0.827258 0.682639
0.827326 0.829491 0.686972
0.932340 0.833108 0.691926
1.000000 0.838450 0.697378
0.000000 0.936708 0.699165
0.000000 0.936700 0.699529
0.202302 0.936640 0.700470
0.407623 0.936468 0.702169
0.577394 0.936222 0.704700
0.723257 0.936017 0.708400
0.845653 0.934192 0.727522
0.928512 0.935598 0.747968
0.978051 0.939223 0.766256
0.348662 0.997150 0.738819
0.392189 0.996297 0.740604
0.480316 0.994294 0.745269
0.593052 0.991350 0.753845
0.707789 0.988361 0.766802
0.809280 0.986487 0.783581
0.889470 0.986425 0.802292
0.945881 0.987946 0.820116
0.979160 0.990085 0.834147
0.132539 0.000000 0.673902
0.171661 0.000000 0.677689
0.237898 0.001326 0.686246
0.311278 0.023293 0.698848
0.383186 0.046780 0.714160
0.566881 0.011625 0.753938
0.788986 0.000000 0.799573
0.938364 0.000000 0.803790
1.000000 0.000000 0.808381
0.146894 0.072435 0.684774
0.182432 0.076595 0.688312
0.244955 0.085049 0.696343
0.316052 0.095582 0.708249
0.388602 0.105684 0.723131
0.577026 0.080180 0.762530
0.792579 0.000000 0.801047
0.940116 0.000000 0.805247
1.000000 0.000000 0.809818
0.173907 0.171031 0.708913
0.203606 0.172412 0.711945
0.259279 0.175349 0.718902
0.325785 0.179193 0.729369
0.403894 0.182379 0.743953
0.601653 0.159055 0.782201
0.801840 0.110337 0.804854
0.944691 0.098136 0.809000
1.000000 0.097621 0.813510
0.204549 0.255702 0.743464
0.228668 0.256216 0.745898
0.276732 0.257413 0.751599
0.337434 0.259353 0.760474
0.435841 0.260094 0.776763
0.639564 0.243895 0.808016
0.817024 0.245493 0.811310
0.950947 0.255270 0.814989
1.000000 0.276254 0.818844
0.105989 0.445953 0.807877
0.148822 0.446998 0.808065
0.218255 0.449698 0.808537
0.293598 0.454609 0.809357
0.458496 0.460265 0.810825
0.656768 0.466264 0.813074
0.822699 0.474542 0.815872
0.946850 0.486704 0.819002
1.000000 0.503584 0.822313
0.000000 0.660618 0.811975
0.000000 0.661269 0.812147
0.000000 0.662938 0.812582
0.246270 0.665440 0.813458
0.476177 0.668159 0.815003
0.668869 0.671546 0.817173
0.822370 0.676439 0.819815
0.936190 0.683598 0.822767
1.000000 0.693495 0.825914
0.000000 0.821047 0.818624
0.000000 0.821308 0.818818
0.000000 0.821838 0.819353
0.305704 0.822513 0.820381
0.519843 0.823320 0.821979
0.690941 0.824547 0.824110
0.826660 0.826666 0.826665
0.927285 0.830136 0.829525
0.993452 0.835278 0.832597
0.000000 0.927619 0.830714
0.000000 0.927584 0.830943
0.252312 0.927473 0.831532
0.432644 0.927246 0.832588
0.591340 0.926961 0.834146
0.730467 0.926534 0.836513
0.846478 0.925510 0.843480
0.925433 0.927442 0.852359
0.972481 0.931290 0.861137
0.382528 0.984246 0.849876
0.421382 0.983470 0.850481
0.501884 0.981671 0.852153
0.606975 0.979097 0.855515
0.715293 0.976605 0.861160
0.811871 0.975239 0.869237
0.888572 0.975570 0.879011
0.942585 0.977306 0.888879
0.974092 0.979492 0.896887
0.135414 0.000000 0.781480
0.169205 0.000000 0.784995
0.229280 0.000000 0.793100
0.298497 0.000000 0.805361
0.387425 0.000000 0.824424
0.592278 0.000000 0.873685
0.802794 0.000000 0.920088
0.943309 0.000000 0.922506
1.000000 0.000000 0.925037
0.147796 0.000000 0.791124
0.178898 0.000000 0.794456
0.235906 0.000000 0.802163
0.303085 0.000000 0.813875
0.396204 0.000000 0.833286
0.602329 0.000000 0.881805
0.806406 0.000000 0.920753
0.945107 0.000000 0.923161
1.000000 0.000000 0.925680
0.172192 0.068653 0.813035
0.198679 0.070518 0.815977
0.249854 0.074362 0.822833
0.312838 0.079063 0.833360
0.418927 0.074865 0.854074
0.626862 0.000000 0.900656
0.815484 0.000000 0.922454
0.949208 0.000000 0.924696
1.000000 0.000000 0.926893
0.180131 0.248794 0.862158
0.204481 0.250212 0.864842
0.252692 0.253692 0.871225
0.313421 0.259586 0.881361
0.454635 0.261042 0.906066
0.655143 0.261807 0.921706
0.823160 0.274820 0.923381
0.949135 0.294914 0.925161
1.000000 0.323002 0.926899
0.000000 0.484347 0.917936
0.000000 0.485406 0.918019
0.128839 0.488120 0.918225
0.261476 0.492704 0.918620
0.470510 0.497728 0.919451
0.665867 0.503734 0.920692
0.824132 0.512109 0.922179
0.941920 0.524034 0.923751
1.000000 0.540123 0.925290
0.000000 0.682542 0.916009
0.000000 0.683148 0.916089
0.000000 0.684568 0.916314
0.263686 0.686472 0.916839
0.494393 0.688744 0.917741
0.678321 0.691792 0.918974
0.823863 0.696312 0.920416
0.931666 0.702952 0.921942
1.000000 0.712120 0.923455
0.000000 0.828015 0.915622
0.000000 0.828183 0.915744
0.000000 0.828531 0.916074
0.347241 0.828998 0.916698
0.542465 0.829628 0.917648
0.702151 0.830696 0.918883
0.829732 0.832631 0.920308
0.924484 0.835848 0.921824
0.986334 0.840645 0.923350
0.016150 0.924616 0.918810
0.168718 0.924557 0.918953
0.319383 0.924396 0.919319
0.470241 0.924115 0.919968
0.613564 0.923787 0.920909
0.745206 0.922783 0.921299
0.851771 0.922567 0.922167
0.924903 0.924941 0.924937
0.968261 0.928858 0.928434
0.439322 0.974647 0.925147
0.471465 0.973971 0.925118
0.540351 0.972431 0.925180
0.633398 0.970297 0.925725
0.731618 0.968362 0.927354
0.820519 0.967528 0.930510
0.891744 0.968228 0.935037
0.941976 0.970108 0.940046
0.970786 0.972239 0.944232
0.166512 0.000000 0.857541
0.191796 0.000000 0.860590
0.241100 0.000000 0.867738
0.302420 0.000000 0.878809
0.428723 0.000000 0.905754
0.636503 0.000000 0.958534
0.823459 0.000000 0.989234
0.952192 0.000000 0.990377
1.000000 0.000000 0.991320
0.175043 0.000000 0.865685
0.198981 0.000000 0.868639
0.246397 0.000000 0.875631
0.306216 0.000000 0.886664
0.438983 0.000000 0.915243
0.646570 0.000000 0.968093
0.825827 0.000000 0.989120
0.952650 0.000000 0.990145
1.000000 0.000000 0.990971
0.182609 0.124045 0.897962
0.205191 0.126592 0.900900
0.250662 0.132711 0.907905
0.309956 0.142607 0.919224
0.462933 0.139971 0.950323
0.665665 0.105103 0.987357
0.829276 0.134849 0.988242
0.952051 0.174045 0.989065
1.000000 0.220969 0.989691
0.065915 0.345808 0.972731
0.113154 0.346996 0.975067
0.183795 0.349978 0.980683
0.287265 0.356175 0.983812
0.482846 0.363624 0.984218
0.673974 0.372485 0.984869
0.830633 0.384805 0.985605
0.947723 0.402158 0.986266
1.000000 0.425134 0.986736
0.000000 0.553259 0.979065
0.000000 0.554171 0.979084
0.000000 0.556470 0.979132
0.279569 0.559740 0.979333
0.497725 0.563633 0.979775
0.681965 0.568716 0.980401
0.829581 0.575958 0.981082
0.939373 0.586211 0.981687
1.000000 0.599953 0.982116
0.000000 0.720760 0.973443
0.000000 0.721189 0.973484
0.000000 0.722120 0.973619
0.318261 0.723455 0.973922
0.526333 0.725209 0.974424
0.695413 0.727744 0.975071
0.830177 0.731629 0.975760
0.930268 0.737400 0.976383
0.996104 0.745413 0.976852
0.000000 0.845968 0.968652
0.000000 0.846055 0.968726
0.199339 0.846238 0.968926
0.406713 0.846501 0.969295
0.575993 0.846928 0.969836
0.720498 0.847777 0.970502
0.837669 0.849428 0.971206
0.925035 0.852249 0.971857
0.978185 0.858047 0.969387
0.243085 0.929762 0.966120
0.296297 0.929679 0.966208
0.396323 0.929473 0.966431
0.519029 0.929134 0.966818
0.644770 0.928684 0.967242
0.768115 0.926876 0.964259
0.862506 0.927364 0.962985
0.927959 0.929994 0.963370
0.966425 0.933747 0.964591
0.511568 0.970376 0.963131
0.536894 0.969820 0.962866
0.592937 0.968575 0.962328
0.671494 0.966918 0.961803
0.756905 0.965549 0.961845
0.835765 0.965210 0.962944
0.899669 0.966192 0.965129
0.944774 0.968091 0.967814
0.969970 0.970028 0.970022
