assets/luts/alexa_look_33.cube
TITLE "Alexa Look 33"
LUT_3D_SIZE 5
DOMAIN_MIN 0.0 0.0 0.0
DOMAIN_MAX 1.0 1.0 1.0
0.009999 0.010001 0.010001
0.230234 0.070426 0.072532
0.409901 0.139517 0.133286
0.742964 0.167445 0.151863
1.000000 0.182213 0.181305
0.137475 0.264981 0.132219
0.272683 0.274799 0.145374
0.430025 0.292811 0.164942
0.769231 0.292116 0.151761
1.000000 0.298921 0.202935
0.232123 0.446801 0.202187
0.312229 0.448227 0.199520
0.449021 0.450393 0.202482
0.812031 0.446537 0.228174
1.000000 0.456459 0.255852
0.000000 0.811659 0.199950
0.037196 0.813298 0.201891
0.479750 0.816975 0.210322
0.826008 0.822504 0.226804
1.000000 0.834425 0.244083
0.291737 1.000000 0.302491
0.445033 1.000000 0.343204
0.697481 1.000000 0.448854
0.894930 1.000000 0.573067
0.992391 1.000000 0.660187
0.024048 0.025395 0.210847
0.235225 0.085163 0.232535
0.409277 0.152252 0.266057
0.749628 0.166283 0.294619
1.000000 0.182103 0.308920
0.147913 0.264582 0.264212
0.273401 0.273405 0.273405
0.427411 0.290126 0.288389
0.772685 0.287437 0.294953
1.000000 0.294320 0.315053
0.235605 0.441432 0.305542
0.312647 0.442795 0.305240
0.450974 0.445970 0.307228
0.815194 0.446589 0.319958
1.000000 0.461961 0.334277
0.000000 0.816873 0.282075
0.000000 0.818487 0.283063
0.485602 0.821960 0.288010
0.827357 0.827371 0.298001
1.000000 0.839089 0.308441
0.316396 1.000000 0.354742
0.459866 1.000000 0.388618
0.703633 1.000000 0.480827
0.896463 1.000000 0.594466
0.991797 1.000000 0.676510
0.135161 0.167902 0.375143
0.261637 0.183163 0.387194
0.415557 0.211014 0.408962
0.774477 0.196413 0.443132
1.000000 0.212127 0.455029
0.188752 0.286840 0.405146
0.286544 0.292535 0.412468
0.427843 0.303861 0.426723
0.786932 0.296115 0.447140
1.000000 0.297940 0.461146
0.234824 0.450314 0.453799
0.306872 0.452925 0.455766
0.460320 0.460294 0.460297
0.823719 0.468524 0.471121
1.000000 0.491122 0.485856
0.000000 0.827596 0.487319
0.000000 0.828893 0.488991
0.501364 0.831204 0.495382
0.829391 0.835171 0.507416
1.000000 0.844643 0.523470
0.335652 1.000000 0.600276
0.472157 1.000000 0.613644
0.706370 1.000000 0.655225
0.892674 0.997870 0.716655
0.984756 1.000000 0.767237
0.132539 0.000000 0.673902
0.237898 0.001326 0.686246
0.383186 0.046780 0.714160
0.788986 0.000000 0.799573
1.000000 0.000000 0.808381
0.173907 0.171031 0.708913
0.259279 0.175349 0.718902
0.403894 0.182379 0.743953
0.801840 0.110337 0.804854
1.000000 0.097621 0.813510
0.105989 0.445953 0.807877
0.218255 0.449698 0.808537
0.458496 0.460265 0.810825
0.822699 0.474542 0.815872
1.000000 0.503584 0.822313
0.000000 0.821047 0.818624
0.000000 0.821838 0.819353
0.519843 0.823320 0.821979
0.826660 0.826666 0.826665
0.993452 0.835278 0.832597
0.382528 0.984246 0.849876
0.501884 0.981671 0.852153
0.715293 0.976605 0.861160
0.888572 0.975570 0.879011
0.974092 0.979492 0.896887
0.166512 0.000000 0.857541
0.241100 0.000000 0.867738
0.428723 0.000000 0.905754
0.823459 0.000000 0.989234
1.000000 0.000000 0.991320
0.182609 0.124045 0.897962
0.250662 0.132711 0.907905
0.462933 0.139971 0.950323
0.829276 0.134849 0.988242
1.000000 0.220969 0.989691
0.000000 0.553259 0.979065
0.000000 0.556470 0.979132
0.497725 0.563633 0.979775
0.829581 0.575958 0.981082
1.000000 0.599953 0.982116
0.000000 0.845968 0.968652
0.199339 0.846238 0.968926
0.575993 0.846928 0.969836
0.837669 0.849428 0.971206
0.978185 0.858047 0.969387
0.511568 0.970376 0.963131
0.592937 0.968575 0.962328
0.756905 0.965549 0.961845
0.899669 0.966192 0.965129
0.969970 0.970028 0.970022
